www_src/static/img/text.svg

<?xml version="1.0" encoding="UTF-8" standalone="no"?>
<svg width="31px" height="19px" viewBox="0 0 31 19" version="1.1" xmlns="http://www.w3.org/2000/svg" xmlns:xlink="http://www.w3.org/1999/xlink" xmlns:sketch="http://www.bohemiancoding.com/sketch/ns">
    <!-- Generator: Sketch 3.3.1 (12002) - http://www.bohemiancoding.com/sketch -->
    <title>Aa</title>
    <desc>Created with Sketch.</desc>
    <defs></defs>
    <g id="Page-1" stroke="none" stroke-width="1" fill="none" fill-rule="evenodd" sketch:type="MSPage">
        <path d="M0.125,18 L0.125,16.5 L2.175,16.025 L7.875,0.625 L10.375,0.5 L15.925,16.025 L18,16.5 L18,18 L10.75,18 L10.75,16.5 L13.075,16.025 L12.125,13.25 L5.625,13.25 L4.65,16.025 L7,16.5 L7,18 L0.125,18 Z M8.925,3.725 L6.3,11.25 L11.45,11.25 L8.925,3.725 Z M19.4999999,5.5 C21.3000089,4.83333 22.9499924,4.5 24.4499999,4.5 C25.9166739,4.5 27.0416627,4.79583037 27.8249999,5.3875 C28.6083372,5.97916962 28.9999999,6.974993 28.9999999,8.375 L28.9999999,16 L30.9999999,16.5 L30.9999999,17.875 L27.1249999,18 L26.5999999,16.25 C25.2666599,17.58334 23.9500064,18.25 22.6499999,18.25 C21.3499934,18.25 20.3750032,17.9250032 19.7249999,17.275 C19.0749967,16.6249967 18.7499999,15.700006 18.7499999,14.5 C18.7499999,11.9166538 20.6666474,10.625 24.4999999,10.625 L26.4999999,10.625 L26.4999999,8.625 C26.4999999,7.1249925 25.7083412,6.375 24.1249999,6.375 C23.2249954,6.375 22.4833362,6.46666575 21.8999999,6.65 L21.5999999,6.75 L21.2499999,8.625 L19.6249999,8.625 L19.4999999,5.5 Z M26.4999999,12.25 L24.7499999,12.25 C23.4999937,12.25 22.6125026,12.4124984 22.0874999,12.7375 C21.5624973,13.0625016 21.2999999,13.5666632 21.2999999,14.25 C21.2999999,14.9000032 21.4541651,15.3958316 21.7624999,15.7375 C22.0708348,16.0791684 22.5166637,16.25 23.0999999,16.25 C23.3833347,16.25 23.6708318,16.2000005 23.9624999,16.1 C24.2541681,15.9999995 24.5374986,15.8750008 24.8124999,15.725 C25.0875013,15.5749993 25.3333322,15.4125009 25.5499999,15.2375 C25.7666677,15.0624991 25.9416659,14.9000008 26.0749999,14.75 L26.4999999,14.25 L26.4999999,12.25 Z" id="Aa" fill="#669EFF" sketch:type="MSShapeGroup"></path>
    </g>
</svg>

<svg width="31" height="19" viewBox="0 0 31 19" xmlns="http://www.w3.org/2000/svg"><title>Aa</title><path d="M.125 18v-1.5l2.05-.475 5.7-15.4 2.5-.125 5.55 15.525L18 16.5V18h-7.25v-1.5l2.325-.475-.95-2.775h-6.5l-.975 2.775L7 16.5V18H.125zm8.8-14.275L6.3 11.25h5.15L8.925 3.725zM19.5 5.5c1.8-.667 3.45-1 4.95-1 1.467 0 2.592.296 3.375.888.783.59 1.175 1.587 1.175 2.987V16l2 .5v1.375L27.125 18l-.525-1.75c-1.333 1.333-2.65 2-3.95 2-1.3 0-2.275-.325-2.925-.975-.65-.65-.975-1.575-.975-2.775 0-2.583 1.917-3.875 5.75-3.875h2v-2c0-1.5-.792-2.25-2.375-2.25-.9 0-1.642.092-2.225.275l-.3.1-.35 1.875h-1.625L19.5 5.5zm7 6.75h-1.75c-1.25 0-2.137.162-2.663.488-.525.325-.787.83-.787 1.512 0 .65.154 1.146.462 1.488.31.34.755.512 1.338.512.283 0 .57-.05.862-.15.292-.1.575-.225.85-.375.276-.15.52-.312.738-.487.217-.176.392-.338.525-.488l.425-.5v-2z" fill="#669EFF" fill-rule="evenodd"/></svg>
